X:1
T:Adagio
T:Adagio
T:Adagio
T:from "Solfeggien für eine Sopranstimme mit und ohne Begleitung" (KV 393/385b) Arrangement for Flute and Cello 
T:Wofgang Amadeus Mozart (1756-1791) arr. Felix Scharpf 
T:Salzburg, Getreidegasse
T:twoflutes 2020 / Felix Scharpf / https://commons.wikimedia.org/wiki/File:Getreidegasse_am_Morgen,_Salzburg.jpg
T:twoflutes 2020 / Felix Scharpf / https://commons.wikimedia.org/wiki/File:Getreidegasse_am_Morgen,_Salzburg.jpg
T:twoflutes 2020 / Felix Scharpf / https://commons.wikimedia.org/wiki/File:Getreidegasse_am_Morgen,_Salzburg.jpg
C:W. A. Mozart
Z:twoflutes 2020 / Felix Scharpf / https://commons.wikimedia.org/wiki/File:Getreidegasse_am_Morgen,_Salzburg.jpg
%%score [ 1 2 ]
L:1/8
Q:1/8=124
M:4/4
K:G
V:1 treble nm="Flöte" snm="Fl."
V:2 bass nm="Violoncello" snm="Vc."
V:1
!mp! (g3 f/e/)({e} d3 c/B/) |!<(! (Tc3/2B/4c/4 dc) (^AB) z2!<)! |!mf! (G4 A4) | %3
 (B>c d/e/f/g/ a/g/f/e/ dTc{Bc} | B2) z2!mp! (TG3!<(! F/G/) | %5
 (TA3 G/A/)!<)!!mf! (B>c (3d/e/f/(3g/a/b/) |!>(! (c'/b/a/g/ f/e/d/c/) (Bd)!>)! z!p! d | %7
 (dg) z g (!fermata!g-g/4a/4b/4a/4) g !fermata!z/ B/ | !fermata!d3 (c/4B/4A/4B/4 A) z !fermata!z2 | %9
 D4 C4 |"_dim." f4 (!fermata!g-(6:4:6g/4b/4a/4g/4f/4e/4 d) !fermata!z | %11
 (=f2 ^d2) (e3/2{^fede}f/ g) z |!p! B2!<(! (d/c/B/A/) G2!<)! z/!mp! (G/A/B/) | %13
"_cresc." (B/c/^G/A/) z/!mf! (A/B/c/) (^c/d/^A/B/) z/"_cresc." (TB/=c/d/ | %14
 e/)(Te/f/!mf!g/ f/e/d/c/) (Td/c/B) (3z/ (G/F/(3G/A/B/) | %15
 (3(B/d/c/(3^G/B/A/) (3z/ (A/G/(3A/B/c/) (3(^c/e/d/(3^A/=c/B/) (3z/ (B/A/!>(!(3B/c/d/) | %16
 e z f z!>)!!mp! f2- (3f/!<(!(b/a/(3g/f/g/)!<)! |!mf! e2-"_dim." (3e/(a/g/(3f/e/f/)!mp! (A2 _B2) | %18
 (B/c/^c/d/) (d/=c/B/A/)!p! g2-"_cresc." (3g/(b/a/(3g/f/g/) | e2- (3e/(g/f/(3e/^d/e/) (A2 _B2) | %20
 (B/d/g/b/ g/d/B/G/)!mf! (TA4{G)A} | G2 z!mp! =f!>(! (fe) z ^f | (fg) z B (dc) z F | %23
 (A!>)!!p!G)[Q:1/8=90] z2 z4[Q:1/8=70] |] %24
V:2
 z!p! G,G,G, z G,G,G, |!<(! z E,F,F, z (G,D,B,,!<)! |!mp! G,,)(G,B,G,) z (D,F,D,) | %3
 (G,2 B,2 A,2 D,2) | .G,(B, D/B,/C/A,/ G,)(G,,B,,G,,) | z (D,F,D,) (G,2 B,2) | (A,2 D,2) z G,G,G, | %7
 z!p! E,E,E, !fermata!^C,4 | !fermata!D,4- D, z !fermata!z2 | z D,D,D, z E,E,E, | %10
"_dim." z C,C,C, !fermata!B,,2 z2 | z2 B,2 (C2 ^C) z |!p! D2!<(! D,2 (G,2!<)! B,2) | %13
"_cresc." (A,2 C2 B,2 E2) | (C2 D2) (G,2 B,2) | (A,2 C2 B,2 E!>(!D) | C z C z z!>)!!mp! B,B,B, | %17
 z C"_dim."CC!mp! ^CCCC | D2 D,2 z B,"_cresc."B,B, | z CCC ^CCCC | DDDD D,D,D,D, | %21
 G, z!mp!!>(! G, z G, z G, z | G, z G, z G, z G, z | G,,G,,G,,G,,!>)!!pp! G,,2 z2 |] %24

